resources/svg/next-small-o.svg

<svg width="15" height="15" viewBox="0 0 15 15" fill="none" xmlns="http://www.w3.org/2000/svg">
<path d="M4.5 5.5L4.74807 5.06588C4.59332 4.97745 4.40319 4.97808 4.24904 5.06754C4.09488 5.15701 4 5.32176 4 5.5H4.5ZM4.5 9.5H4C4 9.67824 4.09488 9.84299 4.24904 9.93246C4.40319 10.0219 4.59332 10.0226 4.74807 9.93412L4.5 9.5ZM8 7.5L8.24807 7.93412C8.40386 7.8451 8.5 7.67943 8.5 7.5C8.5 7.32057 8.40386 7.1549 8.24807 7.06588L8 7.5ZM4 5.5V9.5H5V5.5H4ZM4.74807 9.93412L8.24807 7.93412L7.75193 7.06588L4.25193 9.06588L4.74807 9.93412ZM8.24807 7.06588L4.74807 5.06588L4.25193 5.93412L7.75193 7.93412L8.24807 7.06588ZM10 5V10H11V5H10Z" fill="black"/>
</svg>

<svg viewBox="0 0 15 15" fill="none" xmlns="http://www.w3.org/2000/svg" fill="currentColor"><path d="M4.5 5.5l.248-.434A.5.5 0 004 5.5h.5zm0 4H4a.5.5 0 00.748.434L4.5 9.5zm3.5-2l.248.434a.5.5 0 000-.868L8 7.5zm-4-2v4h1v-4H4zm.748 4.434l3.5-2-.496-.868-3.5 2 .496.868zm3.5-2.868l-3.5-2-.496.868 3.5 2 .496-.868zM10 5v5h1V5h-1z" fill="currentColor"/></svg>
